source/img/sprite/crown.svg

<svg width="22" height="22" viewBox="0 0 22 22" fill="none" xmlns="http://www.w3.org/2000/svg">
<path d="M17.6867 20H4.31331M21 7.11028L18.0746 16.8049H3.92539L1 7.11028L6.77168 10.6142L11 2L15.2283 10.6142L21 7.11028Z" stroke="#0266C1"/>
</svg>

<svg viewBox="0 0 22 22" fill="none" xmlns="http://www.w3.org/2000/svg"><path d="M17.69 20h-13.38m16.69-12.89-2.93 9.7h-14.14l-2.93-9.7 5.77 3.5 4.23-8.61 4.23 8.61 5.77-3.5Z" stroke="#0266C1"/></svg>
